X:1
T:Standin In The Need of Prayer
T:Lord's prayer
T:Copyright 1881 by The Riverside Press
T:Rodeheaver's Plantation Melodies
Z:Rodeheaver's Plantation Melodies
%%score [ 1 2 3 4 ]
L:1/8
M:4/4
K:F
V:1 treble nm="Soprano" snm="S."
V:2 treble nm="Alto" snm="A."
V:3 bass nm="Tenor" snm="T."
V:4 bass nm="Bass" snm="B."
V:1
 A8 | A4 G4 | A8 | A8 | G4 F4 | G4 G4 | A8 || G8 | F8 |] %9
V:2
 F8 | F4 E4 | F8 | F8 | E4 D4 | E4 E4 | F8 || E8 | F8 |] %9
w: Our.Father.which.art.in.Heaven,hallowed|be thy|name,|Thy.Kingdom.come,thy.will.be.done.on|earth as|it in|Heaven,|||
w: Give.us.this.day.our|dai- ly|bread,|And.forgive.us.our.trespasses,as.we.forgive|them that|trespass against|us,|||
w: And.lead.us.not.into.temptation,but.deliver|us from|evil,|For.Thine.is.the.Kingdom,and.the.power,and.the|glory, for|ever and|ever.|A-|men.|
V:3
 C8 | C4 C4 | C8 | C8 | B,4 A,4 | C4 C4 | C8 || B,8 | A,8 |] %9
V:4
 F,8 | F,4 C,4 | F,8 | F,8 | C,4 D,4 | C,4 C,4 | F,8 || C,8 | F,8 |] %9

